X:1
T:Haver, gerst en rogge
C:Jan Alexander Stryckers
O:Lier VL-B
Z:jan.stryckers@lycos.nl
H:= aveno, hordeo kaj sekalo / oats, barley and rye
L:1/4
M:2/2
Q:1/2=66
R:march
K:G
G/A/B/A/ Gd | (3Bcd G2 | c/d/e/d/ cg | (3e=fg ce | dGce | dgc2 | e/f/g/a/ gf/e/ | d2d2 :|
|: d/e/f/e/dA | _B/A/G/B/AG-| Gd2_B | c/d/e-e2 | e/f/g/f/ec | d/e/d/c/BG | B/A/G/c/ B/A/d/c/ | B/A/G/A/-A2 |
G/A/B/A/Gd | c/d/e/d/cg | d/e/=f/e/ d/c/B/c/- | c2d2 | G/A/B/A/Gd | c/d/e/d/cg | d/e/f/e/ d/c/B/A/ | G4 :|]
